X:535
T:B535-  The Yellow -Haired Laddie
S:Scots
Q:1/4=120
L:1/4
M:3/4
K:D
D/E/|FAB|d3/2e/ (d/4e/4f/)|A3/2F/ E3/4D/4|E2D/E/|\
FAB|(d3/4c/4) (d3/4e/4) (d/4e/4f/)|A3/2F/ E3/4D/4|D2||d/e/|\
f(g/f/) (e/d/)|ce/(d/4c/4) B3/4A/4|B/c/d/B/A/F/|E2D/E/|\
FAB|d3/2e/ (d/4e/4f/)|A3/2f/ e3/4d/4|d2|]

